picto/mofa-car-park-left-framed.svg

<svg class="color-immutable" width="30" height="30" viewBox="0 0 30 30" fill="none" xmlns="http://www.w3.org/2000/svg"><path d="M30.0021 0H0.0020752V30H30.0021V0Z" fill="#2D327D"/><path d="M25.5 3C26.325 3 27 3.675 27 4.5V25.5C27 26.325 26.325 27 25.5 27H4.5C3.675 27 3 26.325 3 25.5V4.5C3 3.675 3.675 3 4.5 3H25.5ZM25.5 2.625H4.5C3.46613 2.625 2.625 3.46613 2.625 4.5V25.5C2.625 26.5339 3.46613 27.375 4.5 27.375H25.5C26.5339 27.375 27.375 26.5339 27.375 25.5V4.5C27.375 3.46613 26.5339 2.625 25.5 2.625Z" fill="white"/><path d="M9.52197 15.2228L9.52497 15.978C9.52272 16.143 9.65997 16.2735 9.82497 16.275H9.92697L10.4415 14.9258H9.82497C9.65997 14.925 9.52347 15.0585 9.52197 15.2228Z" fill="white"/><path d="M5.99695 6H7.81375C8.11967 6 8.36035 6.01905 8.53592 6.05708C8.7115 6.09503 8.86997 6.16215 9.0118 6.25875C9.4039 6.52147 9.60002 6.91762 9.60002 7.44735C9.60002 7.9176 9.43772 8.28705 9.11327 8.556C8.97587 8.6709 8.81875 8.7537 8.6422 8.80387C8.46565 8.85405 8.24807 8.8794 7.98932 8.8794H6.9793V10.5022H5.99695V6ZM6.9793 6.83145V8.10645H7.85695C8.11772 8.10645 8.30552 8.06025 8.42042 7.96785C8.56202 7.85295 8.63297 7.68337 8.63297 7.45957C8.63297 7.23375 8.55085 7.06545 8.38667 6.95452C8.26757 6.87255 8.07347 6.83137 7.80467 6.83137H6.9793V6.83145Z" fill="white"/><path d="M6 21.375C6 22.8248 7.17525 24 8.625 24C10.0747 24 11.25 22.8248 11.25 21.375C11.25 20.3612 10.675 19.4824 9.83363 19.045L11.8031 13.875H13.6123C13.7991 13.875 13.95 13.7235 13.95 13.5369C13.95 13.3511 13.7991 13.1996 13.6123 13.1996H11.6262V13.2008C11.5049 13.2004 11.3904 13.2731 11.3446 13.3932L9.27315 18.8309C9.06577 18.7782 8.84865 18.75 8.62492 18.75C7.17525 18.75 6 19.9253 6 21.375ZM7.125 21.375C7.125 20.5463 7.79625 19.875 8.625 19.875C8.70772 19.875 8.78828 19.8834 8.86733 19.8963L8.34472 21.2682C8.2857 21.423 8.36348 21.5963 8.51828 21.6554C8.55338 21.6688 8.58952 21.6751 8.625 21.6751C8.7459 21.6751 8.85982 21.6015 8.90542 21.4818L9.42825 20.1095C9.84675 20.3756 10.1251 20.8421 10.1251 21.375C10.1251 22.2038 9.4539 22.875 8.62515 22.875C7.7964 22.875 7.125 22.2038 7.125 21.375Z" fill="white"/><path d="M18.75 16.35C18.75 15.9772 19.0522 15.675 19.425 15.675H23.25V16.35H18.75Z" fill="white"/><path d="M10.5315 18.0593C11.5882 18.6668 12.3262 19.7648 12.4357 21.0428V21.0638C12.4357 21.4013 12.7095 21.675 13.047 21.675H17.025L18.7676 21.6753C18.9167 22.9835 20.0269 24 21.375 24C22.8247 24 24 22.8248 24 21.375C24 19.9253 22.8247 18.75 21.375 18.75C20.0267 18.75 18.9165 19.7666 18.7675 21.075H17.5626C17.7152 19.1027 19.3629 17.55 21.3749 17.55H23.2499V16.65C23.2499 16.65 17.9557 16.65 16.4249 16.65C16.2464 16.65 16.0514 16.5945 15.8699 16.4505C15.7297 16.3403 14.5882 15.4493 14.0954 15.0645C13.9814 14.9768 13.8389 14.925 13.6844 14.925H11.7254L10.5315 18.0593ZM19.9051 21.6755L21.3751 21.6758C21.4792 21.6755 21.5755 21.6224 21.6301 21.5339C21.7176 21.3922 21.673 21.2078 21.532 21.1208C21.484 21.091 21.4291 21.0756 21.3738 21.0751H19.905C20.0439 20.3903 20.6489 19.8751 21.3749 19.8751C22.2037 19.8751 22.8749 20.5463 22.8749 21.3751C22.8749 22.2038 22.2037 22.8751 21.3749 22.8751C20.6492 22.875 20.0443 22.3601 19.9051 21.6755Z" fill="white"/></svg>

<svg class="color-immutable" width="30" height="30" viewBox="0 0 30 30" fill="none" xmlns="http://www.w3.org/2000/svg"><g clip-path="url(#a)"><path d="M30.002 0h-30v30h30V0Z" fill="#2D327D"/><path d="M25.5 3c.825 0 1.5.675 1.5 1.5v21c0 .825-.675 1.5-1.5 1.5h-21c-.825 0-1.5-.675-1.5-1.5v-21C3 3.675 3.675 3 4.5 3h21Zm0-.375h-21A1.877 1.877 0 0 0 2.625 4.5v21c0 1.034.841 1.875 1.875 1.875h21a1.877 1.877 0 0 0 1.875-1.875v-21A1.877 1.877 0 0 0 25.5 2.625Z" fill="#fff"/><path d="m9.522 15.223.003.755a.298.298 0 0 0 .3.297h.102l.514-1.35h-.616a.302.302 0 0 0-.303.298ZM5.997 6h1.817c.306 0 .546.02.722.057.175.038.334.105.476.202.392.262.588.659.588 1.188 0 .47-.162.84-.487 1.109a1.265 1.265 0 0 1-.47.248c-.177.05-.395.075-.654.075H6.98v1.623h-.982V6Zm.982.831v1.275h.878c.26 0 .449-.046.563-.138.142-.115.213-.285.213-.508 0-.226-.082-.395-.246-.505-.12-.082-.314-.124-.582-.124h-.826Z" fill="#fff"/><path d="M6 21.375a2.625 2.625 0 1 0 3.834-2.33l1.97-5.17h1.808a.338.338 0 0 0 0-.675h-1.986a.3.3 0 0 0-.281.193l-2.072 5.438A2.625 2.625 0 0 0 6 21.375Zm1.125 0a1.5 1.5 0 0 1 1.742-1.479l-.522 1.372a.3.3 0 0 0 .56.214l.523-1.372a1.5 1.5 0 1 1-2.303 1.265ZM18.75 16.35c0-.373.302-.675.675-.675h3.825v.675h-4.5Z" fill="#fff"/><path d="M10.531 18.06a3.82 3.82 0 0 1 1.905 2.983v.02c0 .338.274.612.611.612h5.721a2.625 2.625 0 1 0 0-.6h-1.205a3.824 3.824 0 0 1 3.812-3.525h1.875v-.9h-6.825a.884.884 0 0 1-.555-.2l-1.775-1.385a.671.671 0 0 0-.41-.14h-1.96l-1.194 3.134Zm9.374 3.616h1.47a.3.3 0 1 0-.001-.6h-1.469a1.5 1.5 0 1 1 0 .6Z" fill="#fff"/></g><defs><clipPath id="a"><path fill="#fff" d="M0 0h30v30H0z"/></clipPath></defs></svg>
